X: 262
T: Miss Spence's Favorite
C:
R: reel
Q:
B: William Shepherd "2nd Collection" 1800 p.26 32
F: http://imslp.org/wiki/File:PMLP73094-Shepherd_Collections_HMT.pdf
C: William Shepherd (17??-1812)
Z: 2012 John Chambers <jc:trillian.mit.edu>
M: 2/4
L: 1/16
K: D
|:\
(fg).a.f d2Td2 | ecec A4 | G2BG F2AF | E2AG (GF).E.D |\
(fg).a.f d2d2 | ecec A4 | B2g2 f2d2 | (cd).e.c Td4 :|
|:\
(DF).A.F (DG).B.G | (DF).A.F G4 | B2g2 f2d2 | B2ed (dc).B.A |\
(DF).A.F (DG).B.G | (DF).A.F G4 | B2g2 f2d2 | (cd).e.c Td4 :|
